resources/svg/vr-headset-o.svg

<svg width="15" height="15" viewBox="0 0 15 15" fill="none" xmlns="http://www.w3.org/2000/svg">
<path d="M0.851071 5.39969L0.988431 5.88046H0.988431L0.851071 5.39969ZM14.1489 5.39969L14.2863 4.91893L14.1489 5.39969ZM4.58046 12.3525L5.0194 12.5919L5.0194 12.5919L4.58046 12.3525ZM10.4195 12.3525L10.8585 12.1131L10.8585 12.1131L10.4195 12.3525ZM2.99711 3.75722L2.53287 3.57152L2.99711 3.75722ZM2.03576 4.8143C1.93321 5.0707 2.05791 5.36168 2.3143 5.46424C2.5707 5.5668 2.86168 5.44209 2.96424 5.1857L2.03576 4.8143ZM12.0029 3.75722L12.4671 3.57152V3.57152L12.0029 3.75722ZM12.0358 5.1857C12.1383 5.44209 12.4293 5.5668 12.6857 5.46424C12.9421 5.36168 13.0668 5.0707 12.9642 4.8143L12.0358 5.1857ZM14 5.86512V9.21017H15V5.86512H14ZM11.2102 12H10.668V13H11.2102V12ZM4.33198 12H3.78983V13H4.33198V12ZM1 9.21017V5.86512H0V9.21017H1ZM0.988431 5.88046C5.24432 4.66449 9.75567 4.66449 14.0116 5.88046L14.2863 4.91893C9.85084 3.65166 5.14916 3.65166 0.71371 4.91893L0.988431 5.88046ZM3.78983 12C2.24905 12 1 10.7509 1 9.21017H0C0 11.3032 1.69677 13 3.78983 13V12ZM4.14151 12.1131C4.17953 12.0434 4.25259 12 4.33198 12V13C4.61853 13 4.88219 12.8435 5.0194 12.5919L4.14151 12.1131ZM5.0194 12.5919C6.09036 10.6285 8.90964 10.6285 9.9806 12.5919L10.8585 12.1131C9.40852 9.45479 5.59148 9.45479 4.14151 12.1131L5.0194 12.5919ZM10.668 12C10.7474 12 10.8205 12.0434 10.8585 12.1131L9.9806 12.5919C10.1178 12.8435 10.3815 13 10.668 13V12ZM14 9.21017C14 10.7509 12.7509 12 11.2102 12V13C13.3032 13 15 11.3032 15 9.21017H14ZM15 5.86512C15 5.42576 14.7087 5.03963 14.2863 4.91893L14.0116 5.88046C14.0047 5.8785 14 5.87224 14 5.86512H15ZM1 5.86512C1 5.87224 0.995279 5.8785 0.988431 5.88046L0.71371 4.91893C0.291256 5.03963 0 5.42576 0 5.86512H1ZM2.53287 3.57152L2.03576 4.8143L2.96424 5.1857L3.46135 3.94291L2.53287 3.57152ZM11.5386 3.94291L12.0358 5.1857L12.9642 4.8143L12.4671 3.57152L11.5386 3.94291ZM4.85407 3H10.1459V2H4.85407V3ZM12.4671 3.57152C12.0875 2.62238 11.1682 2 10.1459 2V3C10.7593 3 11.3109 3.37343 11.5386 3.94291L12.4671 3.57152ZM3.46135 3.94291C3.68915 3.37343 4.24071 3 4.85407 3V2C3.8318 2 2.91253 2.62238 2.53287 3.57152L3.46135 3.94291Z" fill="black"/>
</svg>

<svg viewBox="0 0 15 15" fill="none" xmlns="http://www.w3.org/2000/svg" fill="currentColor"><path d="M.851 5.4l.137.48-.137-.48zm13.298 0l.137-.481-.137.48zM4.58 12.352l.44.24-.44-.24zm5.84 0l.438-.239-.439.24zM2.996 3.757l-.464-.185.464.185zm-.961 1.057a.5.5 0 00.928.372l-.928-.372zm9.967-1.057l.464-.185-.464.185zm.033 1.429a.5.5 0 10.928-.372l-.928.372zm1.964.68V9.21h1V5.865h-1zM11.21 12h-.542v1h.542v-1zm-6.878 0H3.79v1h.542v-1zM1 9.21V5.865H0V9.21h1zM.988 5.88a23.703 23.703 0 0113.024 0l.274-.961a24.703 24.703 0 00-13.572 0l.274.961zM3.79 12A2.79 2.79 0 011 9.21H0A3.79 3.79 0 003.79 13v-1zm.352.113a.217.217 0 01.19-.113v1a.78.78 0 00.687-.408l-.877-.479zm.877.479c1.071-1.963 3.89-1.963 4.962 0l.877-.479c-1.45-2.658-5.267-2.658-6.716 0l.877.479zM10.668 12c.08 0 .152.043.19.113l-.877.479a.78.78 0 00.687.408v-1zM14 9.21A2.79 2.79 0 0111.21 12v1A3.79 3.79 0 0015 9.21h-1zm1-3.345a.984.984 0 00-.714-.946l-.274.961A.016.016 0 0114 5.865h1zm-14 0a.016.016 0 01-.012.015l-.274-.96A.984.984 0 000 5.865h1zm1.533-2.293l-.497 1.242.928.372.497-1.243-.928-.371zm9.006.37l.497 1.244.928-.372-.497-1.242-.928.37zM4.854 3h5.292V2H4.854v1zm7.613.572A2.5 2.5 0 0010.146 2v1a1.5 1.5 0 011.393.943l.928-.371zm-9.006.37A1.5 1.5 0 014.854 3V2a2.5 2.5 0 00-2.321 1.572l.928.37z" fill="currentColor"/></svg>
